symbols/web/cancel_presentation/materialsymbolsoutlined/cancel_presentation_wght600gradN25_40px.svg

<svg xmlns="http://www.w3.org/2000/svg" height="40" width="40"><path d="M15.292 26.917 20 22.208l4.708 4.709 2.209-2.209L22.208 20l4.709-4.708-2.209-2.209L20 17.792l-4.708-4.709-2.209 2.209L17.792 20l-4.709 4.708ZM6.5 33.75q-1.458 0-2.5-1.042-1.042-1.041-1.042-2.5V9.792q0-1.459 1.042-2.5Q5.042 6.25 6.5 6.25h27q1.5 0 2.542 1.042 1.041 1.041 1.041 2.5v20.416q0 1.459-1.041 2.5Q35 33.75 33.5 33.75Zm0-3.542h27V9.792h-27v20.416Zm0 0V9.792v20.416Z"/></svg>

<svg xmlns="http://www.w3.org/2000/svg" height="40" width="40"><path d="M15.292 26.917 20 22.208 24.708 26.917 26.917 24.708 22.208 20 26.917 15.292 24.708 13.083 20 17.792 15.292 13.083 13.083 15.292 17.792 20 13.083 24.708ZM6.5 33.75Q5.042 33.75 4 32.708Q2.958 31.667 2.958 30.208V9.792Q2.958 8.333 4 7.292Q5.042 6.25 6.5 6.25H33.5Q35 6.25 36.042 7.292Q37.083 8.333 37.083 9.792V30.208Q37.083 31.667 36.042 32.708Q35 33.75 33.5 33.75ZM6.5 30.208Q6.5 30.208 6.5 30.208Q6.5 30.208 6.5 30.208V9.792Q6.5 9.792 6.5 9.792Q6.5 9.792 6.5 9.792Q6.5 9.792 6.5 9.792Q6.5 9.792 6.5 9.792V30.208Q6.5 30.208 6.5 30.208Q6.5 30.208 6.5 30.208ZM6.5 30.208H33.5Q33.5 30.208 33.5 30.208Q33.5 30.208 33.5 30.208V9.792Q33.5 9.792 33.5 9.792Q33.5 9.792 33.5 9.792H6.5Q6.5 9.792 6.5 9.792Q6.5 9.792 6.5 9.792V30.208Q6.5 30.208 6.5 30.208Q6.5 30.208 6.5 30.208Z"/></svg>
